X:99
T:Prince of Wales Hornpipe,The. JGi.099
O:Tealby,Lincolnshire
M:C|
L:1/8
Q:1/4=130
S:Joshua Gibbons MS,1823,Tealby,Lincs.
R:.hornpipe
Z:VMP/R.Greig, 2009
K:C
ed|cGEG cege|agab c’2ba|gece gece|dBGB dBGB|
cGEG cege|agab c’2ba|gece fdBd|c2c2c2:|
|:gf|egcg egcg|fada fada|egcg egcg|dBGB dBGB|
egcg egcg|agab c’2ba|gece fdBd|c2c2c2:|

